!!!COM:	Josquin des Prez
!!!CDT:	~1450-1521/08/27
!!!OTL@@LAT: Pater noster
!!!OTL2@@LAT: Ave Maria
!!!AGN:	Motet
!!!SCT:	NJE 20.9
!!!SCA:	New Jos9uin Edition 20.9
!!!voices:	6
**kern	**kern	**kern	**kern	**kern	**kern
*staff6	*staff5	*staff4	*staff3	*staff2	*staff1
*Ivox	*Ivox	*Ivox	*Ivox	*Ivox	*Ivox
*I"Bassus	*I"Tenor2	*I"Tenor1	*I"Altus2	*I"Altus2	*I"Superius
*I'B	*I'T2	*I'T1	*I'A2	*I'A2	*I'S
*>[A,B]	*>[A,B]	*>[A,B]	*>[A,B]	*>[A,B]	*>[A,B]
*>Part1[A]	*>Part1[A]	*>Part1[A]	*>Part1[A]	*>Part1[A]	*>Part1[A]
*>Part2[B]	*>Part2[B]	*>Part2[B]	*>Part2[B]	*>Part2[B]	*>Part2[B]
*clefF4	*clefGv2	*clefGv2	*clefGv2	*clefGv2	*clefG2
*k[b-]	*k[b-]	*k[b-]	*k[b-]	*k[b-]	*k[b-]
*M2/1	*M2/1	*M2/1	*M2/1	*M2/1	*M2/1
*met(C|)	*met(C|)	*met(C|)	*met(C|)	*met(C|)	*met(C|)
*>A	*>A	*>A	*>A	*>A	*>A
=1-	=1-	=1-	=1-	=1-	=1-
!	!LO:TX:Z=10:t=Canon at the upper fifth	!	!	!	!
0r	0r	0r	0r	0g	0g
=2	=2	=2	=2	=2	=2
0r	0r	0r	0G	1g	1g
.	.	.	.	[1g	[1b-
=3	=3	=3	=3	=3	=3
0r	0r	0r	1G	1g]	1b-]
.	.	.	[1d	1f	1a
=4	=4	=4	=4	=4	=4
0r	0G	0r	1d]	1r	0r
.	.	.	1d	1g	.
=5	=5	=5	=5	=5	=5
0GG	1G	0r	0r	1g	0r
.	[1B-	.	.	[1g	.
=6	=6	=6	=6	=6	=6
1GG	1B-]	0r	0r	1g]	0r
[1D	1A	.	.	1f	.
=7	=7	=7	=7	=7	=7
!!linebreak:default
1D]	0r	0d	0r	0r	0dd
1D	.	.	.	.	.
=8	=8	=8	=8	=8	=8
0r	0r	1d	0D	0r	1dd
.	.	[1f	.	.	[1dd
=9	=9	=9	=9	=9	=9
0r	0r	1f]	1D	0r	1dd]
.	.	1e	[1A	.	1cc
=10	=10	=10	=10	=10	=10
0D	0A	0r	1A]	1r	0r
.	.	.	1A	1F	.
=11	=11	=11	=11	=11	=11
1D	1A	0r	0r	1F	0r
[1D	[1B-	.	.	[1F	.
=12	=12	=12	=12	=12	=12
1D]	1B-]	0r	0r	1F]	0r
1AA	1A	.	.	1E	.
=13	=13	=13	=13	=13	=13
1C	2A/	0e	0r	0r	1r
.	2G/	.	.	.	.
1C	1A	.	.	.	1cc
=14	=14	=14	=14	=14	=14
!!pagebreak:default
1C	1G	1e	1r	1E	2cc\
.	.	.	.	.	2cc\
[1D	1F	[1f	1A	2D/	[1a
.	.	.	.	2D/	.
=15	=15	=15	=15	=15	=15
1D]	0r	1f]	2F/	1d	2a/]
.	.	.	2D/	.	2b-\
1AA	.	1e	1A	1c	1cc
=16	=16	=16	=16	=16	=16
2C/	0r	2e\	1G	2r	0r
2GG/	.	2d\	.	2B-\	.
1C	.	1e	2r	2c\	.
.	.	.	2G/	2C/	.
=17	=17	=17	=17	=17	=17
1BB-	0r	1d	2G/	1D	0r
.	.	.	2G/	.	.
1AA	.	1c	1A	1E	.
=18	=18	=18	=18	=18	=18
0r	0r	0r	2G/	0r	1r
.	.	.	2d\	.	.
.	.	.	2e\	.	1g
.	.	.	[2g\	.	.
=19	=19	=19	=19	=19	=19
0r	0r	0r	2g\]	0r	2g/
.	.	.	4f\	.	2g/
.	.	.	4e\	.	.
.	.	.	1f	.	1a
=20	=20	=20	=20	=20	=20
0r	0r	0r	2g\	1r	2g/
.	.	.	2d\	.	2f/
.	.	.	2e\	2r	2g/
.	.	.	[2g\	2G/	[2b-\
=21	=21	=21	=21	=21	=21
!!linebreak:default
0r	0r	0r	2g\]	2G/	2b-\]
.	.	.	4f\	2G/	4a/
.	.	.	4e\	.	4g/
.	.	.	1f	1d	1a
=22	=22	=22	=22	=22	=22
1.G	1r	0r	0g	2G/	0g
.	.	.	.	2d\	.
.	1G	.	.	2e\	.
2G\	.	.	.	[2g\	.
=23	=23	=23	=23	=23	=23
1GG	2G/	0r	0r	2g\]	0r
.	2G/	.	.	4f\	.
.	.	.	.	4e\	.
1D	1A	.	.	1f	.
=24	=24	=24	=24	=24	=24
2GG/	2G/	0r	1r	0r	1r
2D\	2F/	.	.	.	.
2E\	2G/	.	2r	.	1g
[2G\	[2B-\	.	2G/	.	.
=25	=25	=25	=25	=25	=25
2G\]	2B-\]	1r	2B-\	0r	2g/
4F\	4A/	.	2c\	.	2g/
4E\	4G/	.	.	.	.
1D	1A	1d	1d	.	1f
=26	=26	=26	=26	=26	=26
2GG/	0G	2d\	1B-	2r	1g
2G\	.	2d\	.	2B-\	.
2C/	.	1e	1r	2c\	2g/
[2G\	.	.	.	2B-\	2g/
=27	=27	=27	=27	=27	=27
4G\]	0r	2d\	1r	1G	1g
4F\	.	.	.	.	.
2E\	.	2c\	.	.	.
1D	.	2d\	2r	1A	1f
.	.	[2f\	2F/	.	.
=28	=28	=28	=28	=28	=28
!!pagebreak:default
1r	0r	2f\]	2A/	0r	1r
.	.	4e\	2B-\	.	.
.	.	4d\	.	.	.
1C	.	1e	1c	.	1g
=29	=29	=29	=29	=29	=29
1.G	0r	0d	0B-	1G	1.b-
.	.	.	.	[1d	.
2G\	.	.	.	.	2b-\
=30	=30	=30	=30	=30	=30
2F\	0r	0r	0r	2d\]	2a/
2G\	.	.	.	2d\	2g/
2F\	.	.	.	1d	2a/
[2G\	.	.	.	.	[2b-\
=31	=31	=31	=31	=31	=31
4G\]	0r	0r	0r	2d\	4b-\]
4F\	.	.	.	.	4a/
4E\	.	.	.	2d\	4g/
4D\	.	.	.	.	4f/
1E	.	.	.	1c	1g
=32	=32	=32	=32	=32	=32
0D	1r	0r	0r	0d	0f
.	1A	.	.	.	.
=33	=33	=33	=33	=33	=33
2r	1.B-	0r	1G	0r	0r
2G\	.	.	.	.	.
2.G\	.	.	[1d	.	.
.	2B-\	.	.	.	.
4G\	.	.	.	.	.
=34	=34	=34	=34	=34	=34
2F\	2A/	0r	2d\]	0r	0r
2G\	2G/	.	2d\	.	.
2F\	2A/	.	1d	.	.
[2G\	[2B-\	.	.	.	.
=35	=35	=35	=35	=35	=35
!!linebreak:default
4G\]	4B-\]	1r	2d\	0r	0r
4F\	4A/	.	.	.	.
4E\	4G/	.	2d\	.	.
4D\	4F/	.	.	.	.
1E	1G	1e	1c	.	.
=36	=36	=36	=36	=36	=36
2D\	0F	1.f	1d	1D	0r
2D\	.	.	.	.	.
2.D\	.	.	2r	[1A	.
.	.	2f\	2D/	.	.
4D\	.	.	.	.	.
=37	=37	=37	=37	=37	=37
2C/	0r	2e\	2E/	2A/]	0r
2D\	.	2d\	2F/	2A/	.
2C/	.	2e\	2E/	1A	.
[2D\	.	[2f\	2D/	.	.
=38	=38	=38	=38	=38	=38
4D\]	0r	4f\]	1F	2A/	0r
4C/	.	4e\	.	.	.
4BB-/	.	4d\	.	2A/	.
4AA/	.	4c\	.	.	.
1BB-	.	1d	1D	1G	.
=39	=39	=39	=39	=39	=39
0AA	0r	0c	0E	0A	1r
.	.	.	.	.	1a
=40	=40	=40	=40	=40	=40
0r	0r	0r	2r	1r	2g/
.	.	.	2G/	.	2g/
.	.	.	2G/	2r	1b-
.	.	.	2G/	2d\	.
=41	=41	=41	=41	=41	=41
0r	0r	0r	2F/	2d\	1a
.	.	.	2D/	2d\	.
.	.	.	[1E-	2B-\	[1g
.	.	.	.	[2c\	.
=42	=42	=42	=42	=42	=42
!!pagebreak:default
0r	0r	0r	1E-]	4c\]	1g]
.	.	.	.	4B-\	.
.	.	.	.	2G/	.
.	.	.	1D	1A	1f
=43	=43	=43	=43	=43	=43
0r	1r	0r	1d	0G	1r
.	1G	.	1d	.	1b-
=44	=44	=44	=44	=44	=44
2r	2G/	0r	1r	1d	0b-
2G\	2G/	.	.	.	.
2G\	1B-	.	2r	1d	.
2G\	.	.	2d\	.	.
=45	=45	=45	=45	=45	=45
2F\	1A	0r	2d\	0r	0r
2D\	.	.	2d\	.	.
[1E-i	2.G/	.	2B-\	.	.
.	.	.	[2c\	.	.
.	4F/	.	.	.	.
=46	=46	=46	=46	=46	=46
1E-]	1G	1r	4c\]	1c	0r
.	.	.	4B-\	.	.
.	.	.	2G/	.	.
1D	1F	1d	1A	1d	.
=47	=47	=47	=47	=47	=47
2r	0r	2d\	0D	1r	1a
2D\	.	2d\	.	.	.
2D\	.	1f	.	2r	1a
2D\	.	.	.	2A/	.
=48	=48	=48	=48	=48	=48
2C/	0r	1e	0r	2A/	2r
2AA/	.	.	.	2A/	2cc\
[1BB-	.	2.d\	.	2F/	2dd\
.	.	.	.	[2G/	2dd\
.	.	4c\	.	.	.
=49	=49	=49	=49	=49	=49
!!linebreak:default
1BB-]	0r	1d	0r	4G/]	2dd\
.	.	.	.	4F/	.
.	.	.	.	2D/	2b-\
1AA	.	1c	.	1E	1cc
=50	=50	=50	=50	=50	=50
1BB-	0r	0r	1G	2D/	1b-
.	.	.	.	2D/	.
2BB-/	.	.	2G/	2D/	1r
2BB-/	.	.	2G/	2D/	.
=51	=51	=51	=51	=51	=51
1C	0r	0r	1A	1E	0r
1GG	.	.	1G	2D/	.
.	.	.	.	2B-\	.
=52	=52	=52	=52	=52	=52
2D\	0r	0r	2F/	2A/	0r
2E-i\	.	.	2G/	2.G/	.
1D	.	.	1A	.	.
.	.	.	.	4F#i/	.
.	.	.	.	4F#i/	.
.	.	.	.	4E/	.
=53	=53	=53	=53	=53	=53
0GG	1G	0r	1G	1G	2r
.	.	.	.	.	2b-\
.	2G/	.	1r	1r	2b-\
.	2G/	.	.	.	2b-\
=54	=54	=54	=54	=54	=54
0r	1A	0r	0r	0r	1cc
.	1G	.	.	.	2b-\
.	.	.	.	.	2g/
=55	=55	=55	=55	=55	=55
0r	2F/	0r	0r	1r	2a/
.	2G/	.	.	.	2.g/
.	1A	.	.	1D	.
.	.	.	.	.	4f#i/
.	.	.	.	.	4f#i/
.	.	.	.	.	4e/
=56	=56	=56	=56	=56	=56
!!pagebreak:default
1GG	[0G	1d	1B-	2D/	0g
.	.	.	.	2D/	.
2GG/	.	2d\	2B-\	1G	.
2GG/	.	2d\	2B-\	.	.
=57	=57	=57	=57	=57	=57
1C	0G_	1e	1c	1E	0r
1GG	.	1d	1B-	2r	.
.	.	.	.	[2G/	.
=58	=58	=58	=58	=58	=58
2C/	0G]	2c\	2e-\	2G/]	0r
2BB-/	.	2d\	2d\	2G/	.
1C	.	1e-i	1c	2.E-i/	.
.	.	.	.	4F/	.
=59	=59	=59	=59	=59	=59
0GG	0r	[0d	1B-	0G	1r
.	.	.	1r	.	1g
=60	=60	=60	=60	=60	=60
2r	0r	0d_	1G	0r	1g
1G	.	.	.	.	.
.	.	.	1G	.	[1b-
2G\	.	.	.	.	.
=61	=61	=61	=61	=61	=61
1G	0r	0d]	2.B-\	0r	1b-]
.	.	.	4c\	.	.
1D	.	.	1d	.	1a
=62	=62	=62	=62	=62	=62
0r	1r	0r	2r	1G	2r
.	.	.	2B-\	.	2dd\
.	1G	.	2B-\	1G	2dd\
.	.	.	[2B-\	.	[2dd\
=63	=63	=63	=63	=63	=63
!!linebreak:default
1GG	1G	0r	4B-\]	2.B-\	4dd\]
.	.	.	4A/	.	4cc\
.	.	.	1G	.	1b-
.	.	.	.	4c\	.
1GG	[1B-	.	.	1d	.
.	.	.	4F/	.	4a/
.	.	.	4E/	.	4g/
=64	=64	=64	=64	=64	=64
2.BB-/	1B-]	0r	0D	0r	0f
4C/	.	.	.	.	.
1D	1A	.	.	.	.
=65	=65	=65	=65	=65	=65
2r	1B-	1r	0r	0r	2r
2GG/	.	.	.	.	2b-\
2GG/	2B-\	1d	.	.	2b-\
2GG/	2B-\	.	.	.	2b-\
=66	=66	=66	=66	=66	=66
2.BB-/	1G	1d	2r	2r	1b-
.	.	.	2d\	2D/	.
4C/	.	.	.	.	.
1D	1F	[1f	2d\	2D/	1a
.	.	.	2d\	2D/	.
=67	=67	=67	=67	=67	=67
0r	0r	1f]	1d	2.F/	0r
.	.	.	.	4G/	.
.	.	1e	1c	1A	.
=68	=68	=68	=68	=68	=68
1D	0r	1f	0r	2r	2r
.	.	.	.	2D/	2a/
2D\	.	2f\	.	2F/	2a/
2D\	.	2f\	.	2D/	2a/
=69	=69	=69	=69	=69	=69
1D	0r	1d	0r	2.F/	1f
.	.	.	.	4G/	.
1AA	.	1c	.	1A	1e
=70	=70	=70	=70	=70	=70
!!pagebreak:default
2r	1G	0r	1B-	1r	0r
2GG/	.	.	.	.	.
1AA	1F	.	1c	2r	.
.	.	.	.	2C/	.
=71	=71	=71	=71	=71	=71
1GG	1G	0r	1B-	2D/	0r
.	.	.	.	2C/	.
[1C	[1A	.	[1c	[1E	.
=72	=72	=72	=72	=72	=72
2C/]	2A/]	0r	2c\]	2E/]	0r
2GG/	2G/	.	2B-\	2D/	.
1GG	1G	.	1B-	1D	.
=73	=73	=73	=73	=73	=73
0r	0r	1d	1r	1D	2r
.	.	.	.	.	2f/
.	.	1c	2r	1E	1g
.	.	.	2G/	.	.
=74	=74	=74	=74	=74	=74
0r	0r	1d	2A/	1D	1f
.	.	.	2A/	.	.
.	.	[1e	[1B-	[1G	[1g
=75	=75	=75	=75	=75	=75
0r	0r	2e\]	2B-\]	2G/]	2g/]
.	.	2d\	2A/	2D/	2f/
.	.	1d	1A	1D	1f
=76	=76	=76	=76	=76	=76
2r	1G	0r	2r	2r	0r
2GG/	.	.	2d\	2D/	.
2BB-/	2G/	.	2d\	2D/	.
2BB-/	2G/	.	2d\	2D/	.
=77	=77	=77	=77	=77	=77
!!linebreak:default
1AA	1A	0r	1c	1E	0r
[1GG	[1B-	.	[1d	[1G	.
=78	=78	=78	=78	=78	=78
1GG]	1B-]	0r	1d]	1G]	1r
1D	1A	.	1d	1F	2r
.	.	.	.	.	2dd\
=79	=79	=79	=79	=79	=79
1BB-	2r	1d	0r	2r	2dd\
.	2B-\	.	.	2F/	2dd\
2BB-/	2B-\	2d\	.	2F/	1dd
2BB-/	2B-\	2d\	.	2G/	.
=80	=80	=80	=80	=80	=80
1C	1G	1e	1r	1E	1cc
2D\	1F	[1f	2r	2D/	2a/
2BB-/	.	.	2B-\	2D/	2dd\
=81	=81	=81	=81	=81	=81
2BB-/	0r	1f]	2B-\	2F/	2dd\
2BB-/	.	.	2B-\	2D/	2dd\
1C	.	1e	1G	1E	1cc
=82	=82	=82	=82	=82	=82
1D	0r	2r	1F	0D	2.a/
.	.	2f\	.	.	.
.	.	.	.	.	4g/
2r	.	2f\	2r	.	2a/
2BB-/	.	2f\	2B-\	.	[2b-\
=83	=83	=83	=83	=83	=83
2BB-/	0r	1d	2B-\	0r	4b-\]
.	.	.	.	.	4a/
2BB-/	.	.	2B-\	.	4g/
.	.	.	.	.	4f/
1C	.	1c	1G	.	4e/
.	.	.	.	.	4f/
.	.	.	.	.	4g/
.	.	.	.	.	4e/
=84	=84	=84	=84	=84	=84
!!pagebreak:default
0D	1r	0r	0F	0r	0f
.	1F	.	.	.	.
=85	=85	=85	=85	=85	=85
1BB-	1F	0r	0r	1D	0r
1BB-	1G	.	.	1D	.
=86	=86	=86	=86	=86	=86
1C	1A	0r	1r	1E	1r
1D	1F	.	1d	1D	1a
=87	=87	=87	=87	=87	=87
1GG	1.G	1r	1d	0r	1b-
[1C	.	1c	[1e	.	[1cc
.	2G/	.	.	.	.
=88	=88	=88	=88	=88	=88
2C/]	0G	1c	1e]	1r	1cc]
2C/	.	.	.	.	.
1GG	.	1d	1d	1G	1b-
=89	=89	=89	=89	=89	=89
0r	0r	1e	0r	1G	0r
.	.	1c	.	1A	.
=90	=90	=90	=90	=90	=90
0r	0r	1.d	0r	2F/	1a
.	.	.	.	2D/	.
.	.	.	.	[1G	[1b-
.	.	2d\	.	.	.
=91	=91	=91	=91	=91	=91
!!linebreak:default
1r	0r	0d	1B-	2G/]	2b-\]
.	.	.	.	2G/	2b-\
[1GG	.	.	[1B-	1G	1b-
=92	=92	=92	=92	=92	=92
2GG/]	1.G	0r	2B-\]	2r	0r
2GG/	.	.	2B-\	2G/	.
1E-	.	.	1B-	2G/	.
.	2G/	.	.	2G/	.
=93	=93	=93	=93	=93	=93
2D\	1A	0r	0r	2F/	0r
2.C/	.	.	.	2.E/	.
.	1G	.	.	.	.
4BB-/	.	.	.	4D/	.
2GG/	.	.	.	[2D/	.
=94	=94	=94	=94	=94	=94
1AA	1F	0r	1r	2D/]	1r
.	.	.	.	2C/	.
1GG	[1G	.	[1B-	1D	2r
.	.	.	.	.	[2dd\
=95	=95	=95	=95	=95	=95
0r	1G]	1.d	2B-\]	0r	2dd\]
.	.	.	2B-\	.	2dd\
.	1G	.	2B-\	.	2dd\
.	.	2d\	2B-\	.	2dd\
=96	=96	=96	=96	=96	=96
0r	0r	1e	2A/	0r	2cc\
.	.	.	2.G/	.	2.b-\
.	.	1d	.	.	.
.	.	.	4F/	.	4a/
.	.	.	2D/	.	2f/
=97	=97	=97	=97	=97	=97
0r	0r	1c	1E	2r	1g
.	.	.	.	2G/	.
.	.	[1d	1D	2A/	1f
.	.	.	.	2A/	.
=98	=98	=98	=98	=98	=98
!!pagebreak:default
0r	0G	1d]	1r	2B-\	1g
.	.	.	.	2G/	.
.	.	1d	[1d	1B-	1d
=99	=99	=99	=99	=99	=99
1D	1D	0r	1d]	0A	2.f/
.	.	.	.	.	4g/
1D	1F	.	1A	.	2a/
.	.	.	.	.	2d/
=100	=100	=100	=100	=100	=100
2C/	1G	0r	2c\	0r	2e/
2E\	.	.	2c\	.	1g
[1D	[1A	.	1d	.	.
.	.	.	.	.	4f#i/
.	.	.	.	.	4e/
=101	=101	=101	=101	=101	=101
1D]	1A]	0d	1D	1r	1f#i
1GG	1G	.	1G	2r	1g
.	.	.	.	2d\	.
=102	=102	=102	=102	=102	=102
1D	1r	1A	1F	2f\	1r
.	.	.	.	2f\	.
1C	1G	1c	[1G	1e	1g
=103	=103	=103	=103	=103	=103
2BB-/	1G	1d	2G/]	1d	1g
2GG/	.	.	2G/	.	.
[1C	[1G	[1e	2.E/	1c	[1g
.	.	.	4F/	.	.
=104	=104	=104	=104	=104	=104
1C]	2G/]	1e]	1G	2r	2g/]
.	2G/	.	.	2c\	2g/
1GG	1G	1d	1r	2B-\	1b-
.	.	.	.	[2d\	.
=105	=105	=105	=105	=105	=105
!!linebreak:default
1D	0F	1r	2A/	2d\]	1a
.	.	.	2A/	2d\	.
1D	.	1d	2A/	1d	[1dd
.	.	.	2A/	.	.
=106	=106	=106	=106	=106	=106
2D\	1r	1d	2.F/	1A	2dd\]
2D\	.	.	.	.	2dd\
.	.	.	4D/	.	.
1BB-	1F	[1d	1D	2B-\	2dd\
.	.	.	.	2B-\	2dd\
=107	=107	=107	=107	=107	=107
1GG	1.G	2d\]	1D	2B-\	2.b-\
.	.	2d\	.	2B-\	.
.	.	.	.	.	4g/
1GG	.	1d	[1G	2.B-\	1g
.	2G/	.	.	.	.
.	.	.	.	4G/	.
=108	=108	=108	=108	=108	=108
1.C	1G	0c	2G/]	2G/	1r
.	.	.	2G/	2G/	.
.	1G	.	1E	[1c	1g
2C/	.	.	.	.	.
=109	=109	=109	=109	=109	=109
1AA	0A	1r	1E	2c\]	1.cc
.	.	.	.	2c\	.
1AA	.	1c	1F	1A	.
.	.	.	.	.	2cc\
=110	=110	=110	=110	=110	=110
1D	0F	1.d	1F	1A	1a
1D	.	.	1D	1d	1a
.	.	2d\	.	.	.
=111	=111	=111	=111	=111	=111
1GG	1G	1d	1D	1B-	1b-
1GG	1G	1d	[1G	1G	1b-
=112	=112	=112	=112	=112	=112
!!pagebreak:default
1.C	2.G/	0e	2G/]	1G	1g
.	.	.	2G/	.	.
.	4G/	.	.	.	.
.	2G/	.	1E	[1c	1g
2C/	2G/	.	.	.	.
=113	=113	=113	=113	=113	=113
1AA	0A	0c	1E	2c\]	1.cc
.	.	.	.	2c\	.
1AA	.	.	1F	1A	.
.	.	.	.	.	2cc\
=114	=114	=114	=114	=114	=114
1D	0F	1d	1F	1A	1a
1D	.	1d	1D	1d	1a
=115	=115	=115	=115	=115	=115
1GG	[0G	2.d\	1D	1B-	1b-
.	.	4d\	.	.	.
1GG	.	2d\	[1G	1G	1b-
.	.	2d\	.	.	.
=116	=116	=116	=116	=116	=116
2.C/	0G_	0e	2G/]	1G	1g
.	.	.	2G/	.	.
4C/	.	.	.	.	.
2C/	.	.	2E/	[1c	2r
2C/	.	.	2C/	.	2g/
=117	=117	=117	=117	=117	=117
1C	0G_	0c	1E	2c\]	2.cc\
.	.	.	.	2c\	.
.	.	.	.	.	4cc\
1C	.	.	1E	1c	2cc\
.	.	.	.	.	2g/
=118	=118	=118	=118	=118	=118
[0GG	0G_	[0d	[0D	1B-	1b-
.	.	.	.	1B-	2.b-\
.	.	.	.	.	4g/
=119	=119	=119	=119	=119	=119
!!linebreak:default
0GG_	0G_	0d_	0D_	1.B-	[0g
.	.	.	.	2G/	.
=120	=120	=120	=120	=120	=120
0GG]	0G]	0d]	0D]	0G	0g]
!!LO:LB:i:g=z
=121||	=121||	=121||	=121||	=121||	=121||
*>B	*>B	*>B	*>B	*>B	*>B
!!section: Secunda pars: Ave Maria
!!!OMD: Sedunda pars: Ave Maria
!	!LO:TX:Z=10:t=Canon at the unison	!	!	!	!
0r	0B-	0r	0G	0r	0r
=122	=122	=122	=122	=122	=122
0r	0F	0r	1A	0r	0r
.	.	.	1D	.	.
=123	=123	=123	=123	=123	=123
0r	0G	0r	1.E	0r	0r
.	.	.	2F/	.	.
=124	=124	=124	=124	=124	=124
0GG	1G	0B-	0G	0G	0r
.	[1d	.	.	.	.
=125	=125	=125	=125	=125	=125
1D	2d\]	0F	0r	1A	0r
.	2e\	.	.	.	.
1D	2f\	.	.	1A	.
.	2d\	.	.	.	.
=126	=126	=126	=126	=126	=126
!!pagebreak:default
1.C	0e	0G	0r	0c	0r
2BB-/	.	.	.	.	.
=127	=127	=127	=127	=127	=127
1GG	0d	1G	0G	0B-	0dd
1GG	.	[1d	.	.	.
=128	=128	=128	=128	=128	=128
1D	0r	2d\]	1F	0r	1a
.	.	2e\	.	.	.
1D	.	2f\	1F	.	1a
.	.	2d\	.	.	.
=129	=129	=129	=129	=129	=129
1.C	0r	0e	0G	0r	0cc
2BB-/	.	.	.	.	.
=130	=130	=130	=130	=130	=130
1GG	1r	0d	1G	1r	1b-
1GG	1d	.	1G	1d	1b-
=131	=131	=131	=131	=131	=131
1D	1f	0r	1F	1d	1a
1BB-	1d	.	1G	1d	1b-
=132	=132	=132	=132	=132	=132
0C	0e	0r	0E	0c	0g
=133	=133	=133	=133	=133	=133
!!linebreak:default
1D	0d	1r	1F	1A	1f
1GG	.	1d	1G	1d	1b-
=134	=134	=134	=134	=134	=134
1D	0r	1f	1F	1d	1a
1BB-	.	1d	1G	1d	1b-
=135	=135	=135	=135	=135	=135
0C	0r	0e	0E	0c	0g
=136	=136	=136	=136	=136	=136
1D	1r	0d	1F	1A	0f
1BB-	1d	.	1D	1f	.
=137	=137	=137	=137	=137	=137
1C	1c	0r	1E	1e	0r
1GG	1B-	.	1G	1d	.
=138	=138	=138	=138	=138	=138
0D	0A	0r	2.F/	0d	0r
.	.	.	4E/	.	.
.	.	.	1F	.	.
=139	=139	=139	=139	=139	=139
1GG	0G	1r	1G	1B-	1r
1GG	.	1d	1B-	[1G	1d
=140	=140	=140	=140	=140	=140
!!pagebreak:default
1C	0r	1c	1c	2G/]	1e
.	.	.	.	2G/	.
1GG	.	1B-	1d	1G	1g
=141	=141	=141	=141	=141	=141
0D	0r	0A	0d	1A	2.f/
.	.	.	.	.	4e/
.	.	.	.	1D	1f
=142	=142	=142	=142	=142	=142
1GG	0d	0G	0B-	1r	1g
1GG	.	.	.	2r	1b-
.	.	.	.	2G/	.
=143	=143	=143	=143	=143	=143
1G	1d	0r	0r	2.B-\	2b-\
.	.	.	.	.	2.dd\
.	.	.	.	4c\	.
1G	1B-	.	.	2d\	.
.	.	.	.	.	4cc\
.	.	.	.	2e\	[2b-\
=144	=144	=144	=144	=144	=144
0F	0c	0r	0r	0f	2b-\]
.	.	.	.	.	4a/
.	.	.	.	.	4g/
.	.	.	.	.	1a
=145	=145	=145	=145	=145	=145
1BB-	0B-	0d	1r	0d	1b-
1GG	.	.	1B-	.	1b-
=146	=146	=146	=146	=146	=146
1G	0r	1d	2.B-\	0r	2b-\
.	.	.	.	.	2.dd\
.	.	.	4c\	.	.
1G	.	1B-	2d\	.	.
.	.	.	.	.	4cc\
.	.	.	2e\	.	[2b-\
=147	=147	=147	=147	=147	=147
!!linebreak:default
0F	0r	0c	0f	0r	2b-\]
.	.	.	.	.	4a/
.	.	.	.	.	4g/
.	.	.	.	.	1a
=148	=148	=148	=148	=148	=148
0BB-	1r	0B-	1d	1r	0b-
.	1d	.	1f	1B-	.
=149	=149	=149	=149	=149	=149
0r	1.c	0r	2.f\	1.A	0r
.	.	.	4e\	.	.
.	.	.	2f\	.	.
.	2B-\	.	[2e\	2G/	.
=150	=150	=150	=150	=150	=150
0r	1A	0r	4e\]	2.F/	2r
.	.	.	4d\	.	.
.	.	.	1d	.	2f/
.	.	.	.	4D/	.
.	1G	.	.	1E	2g/
.	.	.	2c#i\	.	2e/
=151	=151	=151	=151	=151	=151
1r	0A	1r	1d	0D	2.f/
.	.	.	.	.	4g/
1D	.	1d	2r	.	1a
.	.	.	2D/	.	.
=152	=152	=152	=152	=152	=152
1F	0r	1.c	1A	0r	0r
2E\	.	.	2G/	.	.
[2D\	.	2B-\	[2F/	.	.
=153	=153	=153	=153	=153	=153
4D\]	1r	1A	4F/]	0r	0r
4C/	.	.	4E/	.	.
2AA/	.	.	2C/	.	.
1BB-	1d	1G	1D	.	.
=154	=154	=154	=154	=154	=154
!!pagebreak:default
1AA	1c	0A	1E	0r	1r
1D	1A	.	2r	.	1f
.	.	.	2D/	.	.
=155	=155	=155	=155	=155	=155
1BB-	0B-	0r	2D/	0r	2f/
.	.	.	2D/	.	2f/
1GG	.	.	1G	.	1g
=156	=156	=156	=156	=156	=156
0D	0A	1r	1F	2r	0a
.	.	.	.	2D/	.
.	.	1d	1r	2F/	.
.	.	.	.	2D/	.
=157	=157	=157	=157	=157	=157
1AA	0r	1c	1r	1E	1r
1D	.	1A	2r	1D	1f
.	.	.	2D/	.	.
=158	=158	=158	=158	=158	=158
1BB-	0r	0B-	2D/	2r	2f/
.	.	.	2D/	2d\	2f/
1GG	.	.	1G	2d\	1g
.	.	.	.	2d\	.
=159	=159	=159	=159	=159	=159
0D	0r	0A	1F	1d	2a/
.	.	.	.	.	2a/
.	.	.	1F	1d	2a/
.	.	.	.	.	[2b-\
=160	=160	=160	=160	=160	=160
0GG	1.d	0r	1G	0r	4b-\]
.	.	.	.	.	4a/
.	.	.	.	.	4g/
.	.	.	.	.	4f/
.	.	.	[1B-	.	1g
.	2d\	.	.	.	.
=161	=161	=161	=161	=161	=161
!!linebreak:default
0r	1d	0r	1B-]	0r	2.f/
.	.	.	.	.	4d/
.	1c	.	1A	.	2f/
.	.	.	.	.	[2e/
=162	=162	=162	=162	=162	=162
1r	2B-\	0r	2G/	1r	4e/]
.	.	.	.	.	4d/
.	2A/	.	2F/	.	1d
1G	1G	.	1E	1e	.
.	.	.	.	.	2c#i/
=163	=163	=163	=163	=163	=163
1A	0F	1.d	0D	1f	1d
[1B-	.	.	.	1f	1r
.	.	2d\	.	.	.
=164	=164	=164	=164	=164	=164
1B-]	0r	1d	0r	2d\	0r
.	.	.	.	1f	.
1A	.	1c	.	.	.
.	.	.	.	[2e\	.
=165	=165	=165	=165	=165	=165
2G\	0r	2B-\	0r	4e\]	0r
.	.	.	.	4d\	.
2F\	.	2A/	.	1d	.
1E	.	1G	.	.	.
.	.	.	.	2c#i\	.
=166	=166	=166	=166	=166	=166
0D	1r	0F	1r	0d	1r
.	1d	.	1D	.	1f
=167	=167	=167	=167	=167	=167
0r	2c\	0r	2E-i/	0r	2g/
.	2d\	.	2D/	.	2f/
.	1B-	.	1G	.	1g
=168	=168	=168	=168	=168	=168
!!pagebreak:default
0r	2A/	0r	2F/	1d	1a
.	2F/	.	2D/	.	.
.	2G/	.	2E-/	2c\	1r
.	2F/	.	2D/	2d\	.
=169	=169	=169	=169	=169	=169
1r	1G	1r	1E-i	2.B-\	1r
.	.	.	.	4c\	.
2r	1A	1d	1D	1d	1f
2D\	.	.	.	.	.
=170	=170	=170	=170	=170	=170
2E-i\	0r	2c\	0r	0r	2g/
2D\	.	2d\	.	.	2f/
1G	.	1B-	.	.	1g
=171	=171	=171	=171	=171	=171
2F\	0r	2A/	0r	1d	1a
2D\	.	2F/	.	.	.
2E-i\	.	2G/	.	2c\	1r
2D\	.	2F/	.	2d\	.
=172	=172	=172	=172	=172	=172
1E-i	1r	1G	1r	2.B-\	1r
.	.	.	.	4c\	.
1D	1d	1A	2r	1d	1f
.	.	.	2D/	.	.
=173	=173	=173	=173	=173	=173
0r	2c\	0r	2E-i/	0r	2g/
.	2d\	.	2D/	.	2f/
.	1B-	.	1G	.	1g
=174	=174	=174	=174	=174	=174
0r	2A/	0r	2F/	1d	1a
.	2F/	.	2D/	.	.
.	2G/	.	2E-i/	2c\	1r
.	2F/	.	2D/	2d\	.
=175	=175	=175	=175	=175	=175
!!linebreak:default
1r	1G	1r	1E-i	2.B-\	1r
.	.	.	.	4c\	.
2r	1A	1d	1D	1d	1f
2D\	.	.	.	.	.
=176	=176	=176	=176	=176	=176
2E-i\	0r	2c\	0r	0r	2g/
2D\	.	2d\	.	.	2f/
1G	.	1B-	.	.	1g
=177	=177	=177	=177	=177	=177
2F\	0r	2A/	0r	1d	1a
2D\	.	2F/	.	.	.
2E-i\	.	2G/	.	2c\	1r
2D\	.	2F/	.	2d\	.
=178	=178	=178	=178	=178	=178
1E-i	0r	1G	0r	2.B-\	0r
.	.	.	.	4c\	.
1D	.	1A	.	1d	.
=179	=179	=179	=179	=179	=179
2r	1d	0r	1f	0r	1a
2D\	.	.	.	.	.
2D\	2d\	.	2f\	.	2a/
2D\	2d\	.	2f\	.	2a/
=180	=180	=180	=180	=180	=180
1BB-	1d	0r	1f	0r	1b-
1F	1c	.	1f	.	1a
=181	=181	=181	=181	=181	=181
2G\	2B-\	0r	2.d\	0r	2g/
2F\	2A/	.	.	.	2a/
.	.	.	4d\	.	.
2G\	2B-\	.	2d\	.	2d/
2E\	2G/	.	2c\	.	2e/
=182	=182	=182	=182	=182	=182
!!pagebreak:default
2D\	0A	1d	1d	1f	2f/
2D\	.	.	.	.	2a/
2D\	.	2d\	1r	2f\	2a/
2D\	.	2d\	.	2f\	2a/
=183	=183	=183	=183	=183	=183
1BB-	0r	1d	0r	1f	1b-
1F	.	1c	.	1f	1a
=184	=184	=184	=184	=184	=184
2G\	0r	2B-\	0r	2.d\	2g/
2F\	.	2A/	.	.	2a/
.	.	.	.	4d\	.
2G\	.	2B-\	.	2d\	2d/
2E\	.	2G/	.	2c\	2e/
=185	=185	=185	=185	=185	=185
2D\	1d	0A	1f	1d	2f/
2D\	.	.	.	.	2a/
2D\	2d\	.	2f\	1r	2a/
2D\	2d\	.	2f\	.	2a/
=186	=186	=186	=186	=186	=186
1BB-	1d	0r	1f	0r	1b-
2F\	2c\	.	2f\	.	2a/
2F\	2A/	.	2f\	.	2cc\
=187	=187	=187	=187	=187	=187
2G\	2B-\	0r	2d\	1r	2b-\
2C/	2c\	.	2e-i\	.	2.g/
1D	1A	.	1d	1d	.
.	.	.	.	.	4f#i/
.	.	.	.	.	4f#i/
.	.	.	.	.	4e/
=188	=188	=188	=188	=188	=188
2GG/	0G	1d	0B-	2d\	2g/
2G\	.	.	.	2d\	2b-\
2G\	.	2d\	.	1g	2b-\
2G\	.	2d\	.	.	2b-\
=189	=189	=189	=189	=189	=189
!!linebreak:default
1B-	0r	1d	0r	1f	1b-
2F\	.	2c\	.	1f	2a/
2F\	.	2A/	.	.	2cc\
=190	=190	=190	=190	=190	=190
2G\	0r	2B-\	0r	2d\	2b-\
2C/	.	2c\	.	2e-i\	1g
1D	.	1A	.	1d	.
.	.	.	.	.	2f#i/
=191	=191	=191	=191	=191	=191
2GG/	2r	0G	2r	2B-\	1g
2GG/	2G/	.	2d\	2B-\	.
2GG/	2G/	.	2d\	2B-\	2r
2GG/	2G/	.	2d\	2B-\	2g/
=192	=192	=192	=192	=192	=192
1C	2.E-i/	0r	1e-i	1c	2g/
.	.	.	.	.	2g/
.	4F/	.	.	.	.
2GG/	2G/	.	2d\	2B-\	1b-
2GG/	2G/	.	2d\	2B-\	.
=193	=193	=193	=193	=193	=193
2C/	2G/	0r	2e-i\	2c\	2g/
2BB-/	2G/	.	2d\	2d\	2g/
1C	2.E-i/	.	1c	1e-i	2g/
.	.	.	.	.	2g/
.	4F/	.	.	.	.
=194	=194	=194	=194	=194	=194
2GG/	[0Gl	2r	2B-\	2d\	2.b-\
2GG/	.	2G/	2B-\	2d\	.
.	.	.	.	.	4g/
2GG/	.	2G/	2B-\	2d\	2g/
2GG/	.	2G/	2B-\	2d\	2g/
=195	=195	=195	=195	=195	=195
1C	0G_	2.E-i/	1c	1e-i	2g/
.	.	.	.	.	2g/
.	.	4F/	.	.	.
2GG/	.	2G/	2B-\	2d\	1b-
2GG/	.	2G/	2B-\	2d\	.
=196	=196	=196	=196	=196	=196
!!pagebreak:default
2C/	0G_	2G/	2c\	2e-i\	2g/
2BB-/	.	2G/	2d\	2d\	2g/
1C	.	2.E-i/	1e-i	1c	2g/
.	.	.	.	.	2g/
.	.	4F/	.	.	.
=197	=197	=197	=197	=197	=197
[0GGl	0G_	[0Gl	[0dl	[0B-l	1.b-
.	.	.	.	.	2g/
=198	=198	=198	=198	=198	=198
0GG]	0G]	0G]	0d]	0B-]	0gl
==	==	==	==	==	==
*-	*-	*-	*-	*-	*-
!!!RDF**kern: l=long note in original notation
!!!RDF**kern: i=musica ficta
!!!ENC:	Will Watson 2011/05/15
!!!END:	2011/05/15/
!!!EED:	Jesse Rodin
!!!EEV:	2011/08/10/
!!!ONB:	Translated from MusicXML and edited on 2011/08/10/ by Craig Sapp
!!muse2ps: u^(2) @{OTL2}^C^@{COM}\n@{SCT}^I150v105,105,105,105,105,130c90i2I150Q16
